X:1
T:Galilee
T:Galilee
T:Rollin Chauncey Ward, 1893
T:James Arnold Sell, 1892
T:Public Domain Courtesy of the Cyber Hymnal™
T:Public Domain Courtesy of the Cyber Hymnal™
C:Rollin Chauncey Ward, 1893
Z:Public Domain
Z:Courtesy of the Cyber Hymnal™
%%score ( 1 2 ) ( 3 4 )
L:1/8
Q:1/4=97
M:4/4
K:Db
V:1 treble 
V:2 treble 
V:3 bass 
V:4 bass 
V:1
 (D>E) | [DF]3 [DF] [DF]>[DE] [DF]>[EG] | [FA]6 [FA]2 | [GB]3 [GB] [GB]>[Bd] [Ac]>[GB] | %4
w: 1.~My *|heart goes out to Gal- i-|lee; A-|long its shore I fain would|
w: 2.~E’en *|while the waves were run- ning|high, To|them He spake, “Fear not, ’tis|
w: 3.~Blest *|Sav- ior, come, say, “Peace, be|still”; And|guide our bark to Zi- on’s|
 [FA]6 [DF]2 | [CE]3 [DF] [EG]>[FA] [GB]>[Gc] | (d4 A2) [Af]2 | [Ae]3 [Ac] [Ac]>[Bd] [Ac]>[EB] | %8
w: be, Up-|on its breast the sore dis-|tressed, * In|mer- cy met the Sav- ior|
w: I!” So|our frail bark is on the|sea, * Where|hea- vy waves clash wild and|
w: hill; Then|in that land of peace and|rest, * We’ll|praise Thy name with all the|
 !fermata!A6 ||"^Refrain" [FA]2 | [FA]7/2 [DF]/ [EG]>[FA] [GB]>[GB] | [FA]6 [Fd]2 | %12
w: blest.||||
w: free.|Dear|Sav- ior, come while on the|sea, And|
w: blest.||||
 [Ec]7/2 [DB]/ [CA]>[CE] [DF]>[EG] | [DF]6 [FA]2 | [Af]7/2 [Ge]/ [Fd]>[FA] [DF]>[FA] | %15
w: |||
w: still the storm, speak peace to|me; Re-|move my fear and all my|
w: |||
 (B4 d2) [GB]2 | [FA]3 [FA] [EA]>[EA] [GB]>[Gc] | !fermata!d6 |] %18
w: |||
w: dread, * And|say, “’Tis I, be not af-|raid!”|
w: |||
V:2
 D2 | x8 | x8 | x8 | x8 | x8 | F6 x2 | x8 | (E2 F2 G2) || x2 | x8 | x8 | x8 | x8 | x8 | G6 x2 | %16
 x8 | (F>FG>G F2) |] %18
V:3
 (F,>G,) | [D,A,]3 [D,A,] [D,A,]>[D,A,] [D,A,]>[D,A,] | [D,D]6 [D,D]2 | %3
w: ~ *|~ ~ ~ ~ ~ ~|~ ~|
 [G,D]3 [G,D] [G,D]>[G,D] [G,D]>[G,D] | [D,D]6 [D,A,]2 | %5
w: ~ ~ ~ ~ ~ ~|~ ~|
 [A,,A,]3 [A,,A,] [A,,A,]>[A,,A,] [A,,A,]>[A,,A,] | (A,4 D2) [D,D]2 | %7
w: ~ ~ ~ ~ ~ ~|~ * ~|
 [E,C]3 [E,E] [E,E]>[E,E] [E,E]>[E,D] | (!fermata!C2 D2 !fermata!C2) || z2 | %10
w: ~ ~ ~ ~ ~ ~|~ * *||
 z3/2 [D,D]/ [D,D]>[D,A,] [D,A,]>[D,D] [D,D]>[D,D] | [D,D]>[D,D] [D,D]>[D,D] [D,A,]2 z2 | %12
w: Dear Sav- ior, ~ ~ ~ ~|~ while on the sea;|
 z3/2 [A,,A,]/ [A,,A,]>[A,,A,] [A,,A,]>[A,,A,] [A,,A,]>[A,,A,] | %13
w: And still ~ ~ ~ ~ ~|
 [D,A,]>[D,A,] [D,A,]>[D,A,] [D,A,]2 z2 | z3/2 [D,D]/ [D,D]>[D,A,] [D,A,]>[D,D] [D,D]>[D,D] | %15
w: ~ speak peace to me;|Re- move ~ ~ ~ ~ ~|
 [G,D]>[G,D] [G,D]>[G,D] [G,B,]2 [G,D]2 | [A,D]3 [A,D] [A,,C]>[A,,C] [A,,A,]>[A,,A,] | %17
w: dread, and all my dread, ~|~ ~ ~ ~ ~ ~|
 A,>A, B,>B, A,2 |] %18
w: ~ “be not af- raid.”|
V:4
 D,2 | x8 | x8 | x8 | x8 | x8 | D,6 x2 | x8 | A,,6 || x2 | x8 | x8 | x8 | x8 | x8 | x8 | x8 | %17
 D,6 |] %18

